X: 39
T:Hermit's Branle
M:C|
L:1/4
R:Branle
B:Thoinot Arbeau : Orchesographie, 1589
Z:Steve Mansfield March 2001
K:GDor
BB BB | BB AB | cB AG | GF G2 ::
GG GG | GG F2 | GG A2 | F2 D2 |
GG GG | GG F2 | GG A2 | F2 D2 :|

